X: 22069
T: Knocknaboul, The
R: polka
M: 2/4
K: Gmajor
|:D|GB B/c/B/A/|GB B>A|FA AB/A/|FA D2|
GB B>A|G/A/B/c/ dg|fd c/B/A|G2 G:|
|:d|g2 g>f|ga ag|fd d>e|fg af|
g2 g>f|ga ag|fd c>A|G2 G:|
|:A|B2 cB/c/|dc A>G|FD DE|FG Ac|
BA/B/ cB/c/|d/e/d/c/ Ag|fd cA|G2 G:|

